Sources/FrostedUI/Resources/Icons.xcassets/sparkle20.imageset/sparkle-20.svg

<svg width="20" height="20" viewBox="0 0 20 20" fill="none" xmlns="http://www.w3.org/2000/svg" data-fui-icon="true">
  <g clip-path="url(#clip0_882_1119)">
    <path
      d="M5.5 9C5.93937 9 6.33462 9.24792 6.53027 9.62988L6.60156 9.80176L7.48047 12.5186L10.1982 13.3984C10.6761 13.553 11 13.9978 11 14.5C11 15.0022 10.6761 15.447 10.1982 15.6016L7.48047 16.4805L6.60156 19.1982C6.44695 19.6761 6.00224 20 5.5 20C4.99776 20 4.55305 19.6761 4.39844 19.1982L3.51855 16.4805L0.801758 15.6016C0.323909 15.447 0 15.0022 0 14.5C0 13.9978 0.323909 13.553 0.801758 13.3984L3.51855 12.5186L4.39844 9.80176L4.46973 9.62988C4.66538 9.24792 5.06063 9 5.5 9ZM4.92676 13.041C4.79089 13.4609 4.46092 13.7909 4.04102 13.9268L2.26855 14.5L4.04102 15.0732C4.40843 15.1921 4.70644 15.4595 4.86621 15.8057L4.92676 15.959L5.5 17.7305L6.07324 15.959L6.13379 15.8057C6.29356 15.4595 6.59157 15.1921 6.95898 15.0732L8.73047 14.5L6.95898 13.9268C6.53908 13.7909 6.20911 13.4609 6.07324 13.041L5.5 11.2686L4.92676 13.041ZM13.2393 0.00488281C13.7669 0.0473968 14.2278 0.381586 14.4316 0.870117L14.4717 0.977539L15.5107 4.16895C15.5602 4.32084 15.6792 4.43976 15.8311 4.48926L19.0225 5.52832C19.6055 5.71814 20 6.26188 20 6.875C20 7.48812 19.6055 8.03186 19.0225 8.22168L15.8311 9.26074C15.6792 9.31024 15.5602 9.42916 15.5107 9.58105L14.4717 12.7725C14.2819 13.3555 13.7381 13.75 13.125 13.75C12.5119 13.75 11.9681 13.3555 11.7783 12.7725L10.7393 9.58105C10.6898 9.42916 10.5708 9.31024 10.4189 9.26074L7.22754 8.22168C6.64454 8.03186 6.25 7.48812 6.25 6.875C6.25 6.26188 6.64454 5.71814 7.22754 5.52832L10.4189 4.48926C10.5708 4.43976 10.6898 4.32084 10.7393 4.16895L11.7783 0.977539C11.9681 0.394537 12.5119 0 13.125 0L13.2393 0.00488281ZM12.166 4.63281C11.9681 5.24076 11.4908 5.71808 10.8828 5.91602L7.9375 6.875L10.8828 7.83398C11.4908 8.03192 11.9681 8.50924 12.166 9.11719L13.125 12.0615L14.084 9.11719C14.2819 8.50924 14.7592 8.03192 15.3672 7.83398L18.3115 6.875L15.3672 5.91602C14.7592 5.71808 14.2819 5.24076 14.084 4.63281L13.125 1.6875L12.166 4.63281Z"
      fill="currentColor"
    />
  </g>
  <defs>
    <clipPath id="clip0_882_1119"><path fill="currentColor" d="M0 0H20V20H0z" /></clipPath>
  </defs>
</svg>

<svg xmlns="http://www.w3.org/2000/svg" width="20" height="20" fill="none" data-fui-icon="true" viewBox="0 0 20 20"><g clip-path="url(#a)"><path fill="currentColor" d="M5.5 9c.44 0 .835.248 1.03.63l.072.172.878 2.717 2.718.88a1.158 1.158 0 0 1 0 2.203l-2.718.878-.878 2.718a1.158 1.158 0 0 1-2.204 0l-.88-2.718-2.716-.878a1.158 1.158 0 0 1 0-2.204l2.717-.88.88-2.716.07-.172C4.666 9.248 5.062 9 5.5 9m-.573 4.041c-.136.42-.466.75-.886.886l-1.772.573 1.772.573c.367.12.665.386.825.733l.06.153.574 1.771.573-1.771.06-.153c.16-.346.459-.614.826-.733L8.73 14.5l-1.771-.573a1.38 1.38 0 0 1-.886-.886L5.5 11.269zM13.239.005c.528.042.989.377 1.193.865l.04.108 1.039 3.19a.5.5 0 0 0 .32.321l3.192 1.04a1.416 1.416 0 0 1 0 2.693L15.83 9.26a.5.5 0 0 0-.32.32l-1.04 3.192a1.416 1.416 0 0 1-2.693 0L10.74 9.58a.5.5 0 0 0-.32-.32L7.228 8.22a1.416 1.416 0 0 1 0-2.693l3.19-1.039a.5.5 0 0 0 .321-.32L11.78.978c.19-.583.733-.978 1.346-.978zm-1.073 4.628a2 2 0 0 1-1.283 1.283l-2.945.959 2.945.959a2 2 0 0 1 1.283 1.283l.959 2.944.959-2.944a2 2 0 0 1 1.283-1.283l2.944-.959-2.944-.959a2 2 0 0 1-1.283-1.283l-.959-2.945z"/></g><defs><clipPath id="a"><path fill="currentColor" d="M0 0h20v20H0z"/></clipPath></defs></svg>
